X: 18978
T: Inisheer
R: waltz
M: 3/4
K: Gmajor
|:DG A|B3 A Bd|B3 A Bd|E3 B AB|D3 D GA|
B3 A Bd|B3 A Bd|G3 B (3AGF|G3:|
A Bd|e3 f ed|B3 A Bd|gf ed (3Bcd|(e3e) d2|
e3 f ed|B3 A (3Bcd|G3 B (3AGF|G3:|

